resources/svg/subscript.svg

<svg xmlns="http://www.w3.org/2000/svg" fill="none" viewBox="0 0 14 14"><path fill="currentColor" fill-rule="evenodd" d="M7.95494 0.518707C7.6538 0.234298 7.17912 0.24786 6.89471 0.548999L4.32889 3.26575L1.76306 0.548999C1.47866 0.24786 1.00398 0.234298 0.702837 0.518707C0.401698 0.803116 0.388136 1.2778 0.672545 1.57893L3.29727 4.35805L0.2836 7.549C-0.000809319 7.85014 0.0127529 8.32482 0.313892 8.60923C0.615031 8.89363 1.08971 8.88007 1.37412 8.57893L4.32889 5.45036L7.28366 8.57893C7.56807 8.88007 8.04275 8.89363 8.34389 8.60923C8.64502 8.32482 8.65859 7.85014 8.37418 7.549L5.36051 4.35805L7.98523 1.57893C8.26964 1.2778 8.25608 0.803116 7.95494 0.518707ZM11.6294 8.4364C10.9209 8.4364 10.3198 8.88949 10.0971 9.51979C9.98202 9.84524 10.1526 10.2023 10.478 10.3173C10.8035 10.4324 11.1606 10.2618 11.2756 9.93635C11.3274 9.78986 11.4671 9.6864 11.6294 9.6864H12.322C12.5148 9.6864 12.6711 9.84268 12.6711 10.0355C12.6711 10.1741 12.589 10.2997 12.4619 10.3553L10.9781 11.0044C10.3866 11.2632 10.0044 11.8476 10.0044 12.4932V13.0614C10.0044 13.4066 10.2842 13.6864 10.6294 13.6864H13.2961C13.6413 13.6864 13.9211 13.4066 13.9211 13.0614C13.9211 12.7162 13.6413 12.4364 13.2961 12.4364H11.2587C11.278 12.3107 11.3602 12.2017 11.4791 12.1496L12.963 11.5005C13.545 11.2458 13.9211 10.6708 13.9211 10.0355C13.9211 9.15233 13.2052 8.4364 12.322 8.4364H11.6294Z" clip-rule="evenodd"></path></svg>

<svg xmlns="http://www.w3.org/2000/svg" fill="none" viewBox="0 0 14 14"><path fill="currentColor" fill-rule="evenodd" d="M7.955.519a.75.75 0 0 0-1.06.03L4.329 3.266 1.763.549a.75.75 0 1 0-1.09 1.03l2.624 2.78-3.013 3.19a.75.75 0 1 0 1.09 1.03L4.33 5.45l2.954 3.13a.75.75 0 0 0 1.09-1.03L5.361 4.358l2.624-2.78a.75.75 0 0 0-.03-1.06Zm3.674 7.917c-.708 0-1.31.453-1.532 1.084a.625.625 0 1 0 1.179.416.375.375 0 0 1 .353-.25h.693a.35.35 0 0 1 .14.67l-1.484.648a1.625 1.625 0 0 0-.974 1.49v.567c0 .346.28.625.625.625h2.667a.625.625 0 1 0 0-1.25H11.26a.375.375 0 0 1 .22-.286l1.484-.65a1.6 1.6 0 0 0-.641-3.064h-.693Z" clip-rule="evenodd"/></svg>
